X:195
T:Tick- Tock Polka
S:Jim Coon to CoMandoList TOW
R:polka
M:2/4
L:1/8
Q:1/4=140
K:G
D EF |: "G"G2GG | G2 GG| G2 A B |A2 GF |
E2 DE  | F2 ED  | "D7"C4- |C3D |!
  F2 FF | F2 FF |\
  F2 GA | G2FE | D2 DD |1 E2DC |\
  "G"B,4- |B,D EF :|2 c2BA |"G" G4 || !
|:"G"B2 BB | Bc BA | G2 GA | B2 Bc | d2 e2 |
  fg fe |"D7" c4- |c2 Ac| c2 cc |!
cd cB | A2 AB |\
c2 -cd | e2f2 |1ef ec | "G"B4|B2 GA :|2 ef ef |"G"g4-|g ||!
